; generated by PrusaSlicer 2.5.0+linux-x64-GTK3 on 2023-03-11 at 18:48:34 UTC


;
;
; 

; external perimeters extrusion width = 0.45mm
; perimeters extrusion width = 0.45mm
; infill extrusion width = 0.45mm
; solid infill extrusion width = 0.45mm
; top infill extrusion width = 0.40mm
; first layer extrusion width = 0.42mm

; external perimeters extrusion width = 0.45mm
; perimeters extrusion width = 0.45mm
; infill extrusion width = 0.45mm
; solid infill extrusion width = 0.45mm
; top infill extrusion width = 0.40mm
; first layer extrusion width = 0.42mm

M73 P0 R104
M73 Q0 S106
M201 X1000 Y1000 Z200 E5000 ; sets maximum accelerations, mm/sec^2
M203 X200 Y200 Z12 E120 ; sets maximum feedrates, mm / sec
M204 P1250 R1250 T1250 ; sets acceleration (P, T) and retract acceleration (R), mm/sec^2
M205 X8.00 Y8.00 Z0.40 E4.50 ; sets the jerk limits, mm/sec
M205 S0 T0 ; sets the minimum extruding and travel feed rate, mm/sec
M107
;TYPE:Custom
M862.3 P "MK3S" ; printer model check
M862.1 P0.4 ; nozzle diameter check
M115 U3.11.0 ; tell printer latest fw version
G90 ; use absolute coordinates
M83 ; extruder relative mode
M104 S209 ; set extruder temp
M140 S60 ; set bed temp
M190 S60 ; wait for bed temp
M109 S209 ; wait for extruder temp
G28 W ; home all without mesh bed level
G80 ; mesh bed leveling

G1 Z0.2 F720
G1 Y-3 F1000 ; go outside print area
G92 E0
G1 X60 E9 F1000 ; intro line
G1 X100 E12.5 F1000 ; intro line

G92 E0
M221 S95

; Don't change E values below. Excessive value can damage the printer.

M907 E538 ; set extruder motor current
G21 ; set units to millimeters
G90 ; use absolute coordinates
M83 ; use relative distances for extrusion
M900 K0.05 ; Filament gcode LA 1.5
M900 K30 ; Filament gcode LA 1.0
M107
;LAYER_CHANGE
;Z:0.2
;HEIGHT:0.2
;BEFORE_LAYER_CHANGE
G92 E0.0
;0.2


G1 E-.8 F2100
G1 Z.4 F720
;AFTER_LAYER_CHANGE
;0.2
G1 X48.345 Y82.825 F10800
G1 Z.2 F720
G1 E.8 F2100
M204 S800
;TYPE:Skirt/Brim
;WIDTH:0.42
G1 F1200
G1 X49.025 Y82.497 E.02367
G1 X49.921 Y82.351 E.02847
G1 X199.187 Y82.366 E4.68014
G1 X199.923 Y82.534 E.02366
G1 X200.498 Y82.825 E.02019
G1 X200.993 Y83.236 E.02018
G1 X201.384 Y83.747 E.02018
G1 X201.616 Y84.226 E.0167
G1 X201.798 Y85.226 E.03185
G1 X201.798 Y124.228 E1.2229
G1 X201.653 Y125.125 E.02847
M73 Q0 S105
G1 X201.329 Y125.798 E.02343
G1 X200.993 Y126.221 E.01693
G1 X200.511 Y126.623 E.01969
G1 X199.818 Y126.96 E.02416
G1 X198.921 Y127.106 E.02847
G1 X49.921 Y127.106 E4.67179
G1 X49.025 Y126.96 E.02847
G1 X48.345 Y126.632 E.02367
G1 X47.929 Y126.3 E.01669
G1 X47.518 Y125.805 E.02018
G1 X47.19 Y125.125 E.02367
G1 X47.044 Y124.228 E.02847
G1 X47.044 Y85.228 E1.22282
G1 X47.19 Y84.332 E.02847
G1 X47.518 Y83.652 E.02367
G1 X47.929 Y83.157 E.02018
G1 X48.298 Y82.862 E.01481
M204 S1000
; printing object enclosure-Body.stl id:0 copy 0
;WIPE_START
G1 F8640
G1 X49.025 Y82.497 E-.18786
G1 X49.921 Y82.351 E-.20968
G1 X51.491 Y82.352 E-.36246
;WIPE_END
G1 E-.04 F2100
G1 Z.6 F720
G1 X50.208 Y85.524 F10800
G1 Z.2 F720
G1 E.8 F2100
M204 S800
;TYPE:Perimeter
;WIDTH:0.419999
G1 F1200
G1 X198.634 Y85.524 E4.65378
G1 X198.634 Y123.933 E1.20427
M73 P0 R103
G1 X50.217 Y123.941 E4.65351
G1 X50.208 Y85.584 E1.20266
M204 S1000
G1 X49.831 Y85.272 F10800
M204 S800
;TYPE:External perimeter
G1 F1200
G1 X49.913 Y85.147 E.00467
G1 X198.929 Y85.147 E4.67228
G1 X199.011 Y85.272 E.00468
G1 X199.011 Y124.185 E1.2201
G1 X198.929 Y124.31 E.00467
G1 X49.965 Y124.318 E4.67068
G1 X49.84 Y124.237 E.00467
M73 P1 R103
G1 X49.831 Y85.332 E1.21983
M204 S1000
G1 X49.979 Y85.251 F10800
;WIPE_START
M73 Q1 S105
G1 F8640
G1 X49.913 Y85.147 E-.04661
G1 X53.003 Y85.147 E-.71339
;WIPE_END
G1 E-.04 F2100
G1 Z.6 F720
G1 X198.521 Y86.401 F10800
G1 Z.2 F720
G1 E.8 F2100
M204 S800
;TYPE:Solid infill
;WIDTH:0.420699
G1 F1200
G1 X197.927 Y85.807 E.02639
G1 X197.393 Y85.807 E.01678
G1 X198.351 Y86.766 E.04259
G1 X198.351 Y87.3 E.01678
G1 X196.859 Y85.807 E.06632
G1 X196.324 Y85.807 E.01678
G1 X198.351 Y87.834 E.09005
G1 X198.351 Y88.368 E.01678
G1 X195.79 Y85.807 E.11379
G1 X195.256 Y85.807 E.01678
G1 X198.351 Y88.903 E.13752
G1 X198.351 Y89.437 E.01678
G1 X194.722 Y85.807 E.16126
G1 X194.187 Y85.807 E.01678
G1 X198.351 Y89.971 E.18499
G1 X198.351 Y90.506 E.01678
G1 X193.653 Y85.807 E.20872
G1 X193.119 Y85.807 E.01678
G1 X198.351 Y91.04 E.23246
G1 X198.351 Y91.574 E.01678
G1 X192.584 Y85.807 E.25619
G1 X192.05 Y85.807 E.01678
G1 X198.351 Y92.108 E.27993
G1 X198.351 Y92.643 E.01678
G1 X191.516 Y85.807 E.30366
G1 X190.982 Y85.807 E.01678
G1 X198.351 Y93.177 E.32739
G1 X198.351 Y93.711 E.01678
G1 X190.447 Y85.807 E.35113
G1 X189.913 Y85.807 E.01678
G1 X198.351 Y94.245 E.37486
G1 X198.351 Y94.78 E.01678
G1 X189.379 Y85.807 E.3986
G1 X188.845 Y85.807 E.01678
G1 X198.351 Y95.314 E.42233
G1 X198.351 Y95.848 E.01678
G1 X188.31 Y85.807 E.44606
G1 X187.776 Y85.807 E.01678
G1 X198.351 Y96.382 E.4698
G1 X198.351 Y96.917 E.01678
M73 Q1 S104
G1 X187.242 Y85.807 E.49353
G1 X186.708 Y85.807 E.01678
G1 X198.351 Y97.451 E.51727
G1 X198.351 Y97.985 E.01678
G1 X186.173 Y85.807 E.541
G1 X185.639 Y85.807 E.01678
G1 X198.351 Y98.519 E.56473
G1 X198.351 Y99.054 E.01678
G1 X185.105 Y85.807 E.58847
G1 X184.571 Y85.807 E.01678
G1 X198.351 Y99.588 E.6122
G1 X198.351 Y100.122 E.01678
G1 X184.036 Y85.807 E.63593
G1 X183.502 Y85.807 E.01678
G1 X198.351 Y100.656 E.65967
G1 X198.351 Y101.191 E.01678
G1 X182.968 Y85.807 E.6834
G1 X182.434 Y85.807 E.01678
G1 X198.351 Y101.725 E.70714
G1 X198.351 Y102.259 E.01678
G1 X181.899 Y85.807 E.73087
G1 X181.365 Y85.807 E.01678
G1 X198.351 Y102.793 E.7546
G1 X198.351 Y103.328 E.01678
G1 X180.831 Y85.807 E.77834
G1 X180.297 Y85.807 E.01678
G1 X198.351 Y103.862 E.80207
G1 X198.351 Y104.396 E.01678
G1 X179.762 Y85.807 E.82581
G1 X179.228 Y85.807 E.01678
G1 X198.351 Y104.931 E.84954
G1 X198.351 Y105.465 E.01678
M73 P1 R102
G1 X178.694 Y85.807 E.87327
G1 X178.159 Y85.807 E.01678
G1 X198.351 Y105.999 E.89701
G1 X198.351 Y106.533 E.01678
G1 X177.625 Y85.807 E.92074
G1 X177.091 Y85.807 E.01678
G1 X198.351 Y107.068 E.94448
G1 X198.351 Y107.602 E.01678
G1 X176.557 Y85.807 E.96821
G1 X176.022 Y85.807 E.01678
G1 X198.351 Y108.136 E.99194
G1 X198.351 Y108.67 E.01678
G1 X175.488 Y85.807 E1.01568
G1 X174.954 Y85.807 E.01678
G1 X198.351 Y109.205 E1.03941
G1 X198.351 Y109.739 E.01678
G1 X174.42 Y85.807 E1.06315
G1 X173.885 Y85.807 E.01678
G1 X198.351 Y110.273 E1.08688
G1 X198.351 Y110.807 E.01678
G1 X173.351 Y85.807 E1.11061
G1 X172.817 Y85.807 E.01678
G1 X198.351 Y111.342 E1.13435
G1 X198.351 Y111.876 E.01678
G1 X172.283 Y85.807 E1.15808
G1 X171.748 Y85.807 E.01678
G1 X198.351 Y112.41 E1.18181
G1 X198.351 Y112.944 E.01678
G1 X171.214 Y85.807 E1.20555
G1 X170.68 Y85.807 E.01678
G1 X198.351 Y113.479 E1.22928
G1 X198.351 Y114.013 E.01678
G1 X170.146 Y85.807 E1.25302
G1 X169.611 Y85.807 E.01678
G1 X198.351 Y114.547 E1.27675
G1 X198.351 Y115.081 E.01678
G1 X169.077 Y85.807 E1.30048
G1 X168.543 Y85.807 E.01678
M73 P2 R102
G1 X198.351 Y115.616 E1.32422
G1 X198.351 Y116.15 E.01678
M73 Q2 S104
G1 X168.009 Y85.807 E1.34795
G1 X167.474 Y85.807 E.01678
G1 X198.351 Y116.684 E1.37169
G1 X198.351 Y117.219 E.01678
G1 X166.94 Y85.807 E1.39542
G1 X166.406 Y85.807 E.01678
M73 Q2 S103
G1 X198.351 Y117.753 E1.41915
G1 X198.351 Y118.287 E.01678
G1 X165.871 Y85.807 E1.44289
G1 X165.337 Y85.807 E.01678
G1 X198.351 Y118.821 E1.46662
G1 X198.351 Y119.356 E.01678
G1 X164.803 Y85.807 E1.49036
G1 X164.269 Y85.807 E.01678
G1 X198.351 Y119.89 E1.51409
G1 X198.351 Y120.424 E.01678
G1 X163.734 Y85.807 E1.53782
G1 X163.2 Y85.807 E.01678
G1 X198.351 Y120.958 E1.56156
G1 X198.351 Y121.493 E.01678
M73 P2 R101
G1 X162.666 Y85.807 E1.58529
G1 X162.132 Y85.807 E.01678
G1 X198.351 Y122.027 E1.60903
G1 X198.351 Y122.561 E.01678
G1 X161.597 Y85.807 E1.63276
G1 X161.063 Y85.807 E.01678
G1 X198.351 Y123.095 E1.65649
G1 X198.351 Y123.63 E.01678
G1 X160.529 Y85.807 E1.68023
G1 X159.995 Y85.807 E.01678
G1 X197.837 Y123.65 E1.68113
G1 X197.303 Y123.65 E.01678
G1 X159.46 Y85.807 E1.68113
G1 X158.926 Y85.807 E.01678
G1 X196.769 Y123.65 E1.68113
G1 X196.235 Y123.65 E.01678
G1 X158.392 Y85.807 E1.68113
G1 X157.858 Y85.807 E.01678
G1 X195.701 Y123.65 E1.68113
G1 X195.166 Y123.65 E.01678
G1 X157.323 Y85.807 E1.68113
G1 X156.789 Y85.807 E.01678
G1 X194.632 Y123.65 E1.68114
G1 X194.098 Y123.65 E.01678
G1 X156.255 Y85.807 E1.68114
G1 X155.721 Y85.807 E.01678
G1 X193.564 Y123.65 E1.68114
G1 X193.029 Y123.65 E.01678
M73 P3 R101
G1 X155.186 Y85.807 E1.68114
G1 X154.652 Y85.807 E.01678
M73 Q3 S103
G1 X192.495 Y123.65 E1.68114
G1 X191.961 Y123.65 E.01678
M73 Q3 S102
G1 X154.118 Y85.807 E1.68114
G1 X153.584 Y85.807 E.01678
G1 X191.427 Y123.65 E1.68114
G1 X190.892 Y123.65 E.01678
G1 X153.049 Y85.807 E1.68115
G1 X152.515 Y85.807 E.01678
G1 X190.358 Y123.65 E1.68115
G1 X189.824 Y123.65 E.01678
G1 X151.981 Y85.807 E1.68115
G1 X151.446 Y85.807 E.01678
G1 X189.29 Y123.65 E1.68115
G1 X188.756 Y123.65 E.01678
G1 X150.912 Y85.807 E1.68115
G1 X150.378 Y85.807 E.01678
M73 P3 R100
G1 X188.221 Y123.65 E1.68115
G1 X187.687 Y123.65 E.01678
G1 X149.844 Y85.807 E1.68115
G1 X149.309 Y85.807 E.01678
G1 X187.153 Y123.651 E1.68116
G1 X186.619 Y123.651 E.01678
G1 X148.775 Y85.807 E1.68116
G1 X148.241 Y85.807 E.01678
G1 X186.084 Y123.651 E1.68116
G1 X185.55 Y123.651 E.01678
G1 X147.707 Y85.807 E1.68116
G1 X147.172 Y85.807 E.01678
G1 X185.016 Y123.651 E1.68116
G1 X184.482 Y123.651 E.01678
G1 X146.638 Y85.807 E1.68116
G1 X146.104 Y85.807 E.01678
G1 X183.948 Y123.651 E1.68116
G1 X183.413 Y123.651 E.01678
G1 X145.57 Y85.807 E1.68116
G1 X145.035 Y85.807 E.01678
G1 X182.879 Y123.651 E1.68117
G1 X182.345 Y123.651 E.01678
G1 X144.501 Y85.807 E1.68117
G1 X143.967 Y85.807 E.01678
G1 X181.811 Y123.651 E1.68117
G1 X181.276 Y123.651 E.01678
G1 X143.433 Y85.807 E1.68117
G1 X142.898 Y85.807 E.01678
M73 P4 R100
G1 X180.742 Y123.651 E1.68117
G1 X180.208 Y123.651 E.01678
M73 Q4 S102
G1 X142.364 Y85.807 E1.68117
G1 X141.83 Y85.807 E.01678
M73 Q4 S101
G1 X179.674 Y123.651 E1.68117
G1 X179.139 Y123.651 E.01678
G1 X141.296 Y85.807 E1.68118
G1 X140.761 Y85.807 E.01678
G1 X178.605 Y123.651 E1.68118
G1 X178.071 Y123.651 E.01678
G1 X140.227 Y85.807 E1.68118
G1 X139.693 Y85.807 E.01678
G1 X177.537 Y123.651 E1.68118
G1 X177.003 Y123.651 E.01678
G1 X139.158 Y85.807 E1.68118
G1 X138.624 Y85.807 E.01678
M73 P4 R99
G1 X176.468 Y123.651 E1.68118
G1 X175.934 Y123.651 E.01678
G1 X138.09 Y85.807 E1.68118
G1 X137.556 Y85.807 E.01678
G1 X175.4 Y123.651 E1.68119
G1 X174.866 Y123.651 E.01678
G1 X137.021 Y85.807 E1.68119
G1 X136.487 Y85.807 E.01678
G1 X174.331 Y123.651 E1.68119
G1 X173.797 Y123.651 E.01678
G1 X135.953 Y85.807 E1.68119
G1 X135.419 Y85.807 E.01678
G1 X173.263 Y123.651 E1.68119
G1 X172.729 Y123.651 E.01678
G1 X134.884 Y85.807 E1.68119
G1 X134.35 Y85.807 E.01678
G1 X172.194 Y123.651 E1.68119
G1 X171.66 Y123.651 E.01678
G1 X133.816 Y85.807 E1.6812
G1 X133.282 Y85.807 E.01678
G1 X171.126 Y123.651 E1.6812
G1 X170.592 Y123.652 E.01678
G1 X132.747 Y85.807 E1.6812
G1 X132.213 Y85.807 E.01678
G1 X170.058 Y123.652 E1.6812
G1 X169.523 Y123.652 E.01678
G1 X131.679 Y85.807 E1.6812
G1 X131.145 Y85.807 E.01678
G1 X168.989 Y123.652 E1.6812
G1 X168.455 Y123.652 E.01678
M73 P5 R99
G1 X130.61 Y85.807 E1.6812
G1 X130.076 Y85.807 E.01678
M73 Q4 S100
G1 X167.921 Y123.652 E1.68121
G1 X167.386 Y123.652 E.01678
M73 Q5 S100
G1 X129.542 Y85.807 E1.68121
G1 X129.008 Y85.807 E.01678
G1 X166.852 Y123.652 E1.68121
G1 X166.318 Y123.652 E.01678
G1 X128.473 Y85.807 E1.68121
G1 X127.939 Y85.807 E.01678
G1 X165.784 Y123.652 E1.68121
G1 X165.25 Y123.652 E.01678
G1 X127.405 Y85.807 E1.68121
G1 X126.871 Y85.807 E.01678
M73 P5 R98
G1 X164.715 Y123.652 E1.68121
G1 X164.181 Y123.652 E.01678
G1 X126.336 Y85.807 E1.68121
G1 X125.802 Y85.807 E.01678
G1 X163.647 Y123.652 E1.68122
G1 X163.113 Y123.652 E.01678
G1 X125.268 Y85.807 E1.68122
G1 X124.733 Y85.807 E.01678
G1 X162.578 Y123.652 E1.68122
G1 X162.044 Y123.652 E.01678
G1 X124.199 Y85.807 E1.68122
G1 X123.665 Y85.807 E.01678
G1 X161.51 Y123.652 E1.68122
G1 X160.976 Y123.652 E.01678
G1 X123.131 Y85.807 E1.68122
G1 X122.596 Y85.807 E.01678
G1 X160.441 Y123.652 E1.68122
G1 X159.907 Y123.652 E.01678
G1 X122.062 Y85.807 E1.68123
G1 X121.528 Y85.807 E.01678
G1 X159.373 Y123.652 E1.68123
G1 X158.839 Y123.652 E.01678
G1 X120.994 Y85.807 E1.68123
G1 X120.459 Y85.807 E.01678
G1 X158.305 Y123.652 E1.68123
G1 X157.77 Y123.652 E.01678
G1 X119.925 Y85.807 E1.68123
G1 X119.391 Y85.807 E.01678
G1 X157.236 Y123.652 E1.68123
G1 X156.702 Y123.652 E.01678
G1 X118.857 Y85.807 E1.68123
G1 X118.322 Y85.807 E.01678
M73 P6 R98
M73 Q5 S99
G1 X156.168 Y123.652 E1.68124
G1 X155.633 Y123.652 E.01678
G1 X117.788 Y85.807 E1.68124
G1 X117.254 Y85.807 E.01678
M73 Q6 S99
G1 X155.099 Y123.652 E1.68124
G1 X154.565 Y123.652 E.01678
G1 X116.72 Y85.807 E1.68124
G1 X116.185 Y85.807 E.01678
G1 X154.031 Y123.652 E1.68124
G1 X153.496 Y123.653 E.01678
G1 X115.651 Y85.807 E1.68124
G1 X115.117 Y85.807 E.01678
M73 P6 R97
G1 X152.962 Y123.653 E1.68124
G1 X152.428 Y123.653 E.01678
G1 X114.583 Y85.807 E1.68125
G1 X114.048 Y85.807 E.01678
G1 X151.894 Y123.653 E1.68125
G1 X151.36 Y123.653 E.01678
G1 X113.514 Y85.807 E1.68125
G1 X112.98 Y85.807 E.01678
G1 X150.825 Y123.653 E1.68125
G1 X150.291 Y123.653 E.01678
G1 X112.445 Y85.807 E1.68125
G1 X111.911 Y85.807 E.01678
G1 X149.757 Y123.653 E1.68125
G1 X149.223 Y123.653 E.01678
G1 X111.377 Y85.807 E1.68125
G1 X110.843 Y85.807 E.01678
G1 X148.688 Y123.653 E1.68125
G1 X148.154 Y123.653 E.01678
G1 X110.308 Y85.807 E1.68126
G1 X109.774 Y85.807 E.01678
G1 X147.62 Y123.653 E1.68126
G1 X147.086 Y123.653 E.01678
G1 X109.24 Y85.807 E1.68126
G1 X108.706 Y85.807 E.01678
G1 X146.552 Y123.653 E1.68126
G1 X146.017 Y123.653 E.01678
G1 X108.171 Y85.807 E1.68126
G1 X107.637 Y85.807 E.01678
G1 X145.483 Y123.653 E1.68126
G1 X144.949 Y123.653 E.01678
G1 X107.103 Y85.807 E1.68126
G1 X106.569 Y85.807 E.01678
M73 Q6 S98
G1 X144.415 Y123.653 E1.68127
G1 X143.88 Y123.653 E.01678
M73 P7 R97
G1 X106.034 Y85.807 E1.68127
G1 X105.5 Y85.807 E.01678
G1 X143.346 Y123.653 E1.68127
G1 X142.812 Y123.653 E.01678
G1 X104.966 Y85.807 E1.68127
G1 X104.432 Y85.807 E.01678
M73 Q7 S98
G1 X142.278 Y123.653 E1.68127
G1 X141.743 Y123.653 E.01678
G1 X103.897 Y85.807 E1.68127
G1 X103.363 Y85.807 E.01678
M73 P7 R96
G1 X141.209 Y123.653 E1.68127
G1 X140.675 Y123.653 E.01678
G1 X102.829 Y85.807 E1.68128
G1 X102.295 Y85.807 E.01678
G1 X140.141 Y123.653 E1.68128
G1 X139.607 Y123.653 E.01678
G1 X101.76 Y85.807 E1.68128
G1 X101.226 Y85.807 E.01678
G1 X139.072 Y123.653 E1.68128
G1 X138.538 Y123.653 E.01678
G1 X100.692 Y85.807 E1.68128
G1 X100.158 Y85.807 E.01678
G1 X138.004 Y123.653 E1.68128
G1 X137.47 Y123.653 E.01678
G1 X99.623 Y85.807 E1.68128
G1 X99.089 Y85.807 E.01678
G1 X136.935 Y123.653 E1.68129
G1 X136.401 Y123.654 E.01678
G1 X98.555 Y85.807 E1.68129
G1 X98.02 Y85.807 E.01678
G1 X135.867 Y123.654 E1.68129
G1 X135.333 Y123.654 E.01678
G1 X97.486 Y85.807 E1.68129
G1 X96.952 Y85.807 E.01678
G1 X134.798 Y123.654 E1.68129
G1 X134.264 Y123.654 E.01678
G1 X96.418 Y85.807 E1.68129
G1 X95.883 Y85.807 E.01678
G1 X133.73 Y123.654 E1.68129
G1 X133.196 Y123.654 E.01678
G1 X95.349 Y85.807 E1.6813
G1 X94.815 Y85.807 E.01678
M73 Q7 S97
G1 X132.662 Y123.654 E1.6813
G1 X132.127 Y123.654 E.01678
G1 X94.281 Y85.807 E1.6813
G1 X93.746 Y85.807 E.01678
M73 P8 R96
G1 X131.593 Y123.654 E1.6813
G1 X131.059 Y123.654 E.01678
G1 X93.212 Y85.807 E1.6813
G1 X92.678 Y85.807 E.01678
G1 X130.525 Y123.654 E1.6813
G1 X129.99 Y123.654 E.01678
M73 Q8 S97
G1 X92.144 Y85.807 E1.6813
G1 X91.609 Y85.807 E.01678
M73 P8 R95
G1 X129.456 Y123.654 E1.6813
G1 X128.922 Y123.654 E.01678
G1 X91.075 Y85.807 E1.68131
G1 X90.541 Y85.807 E.01678
G1 X128.388 Y123.654 E1.68131
G1 X127.853 Y123.654 E.01678
G1 X90.007 Y85.807 E1.68131
G1 X89.472 Y85.807 E.01678
G1 X127.319 Y123.654 E1.68131
G1 X126.785 Y123.654 E.01678
G1 X88.938 Y85.807 E1.68131
G1 X88.404 Y85.807 E.01678
G1 X126.251 Y123.654 E1.68131
G1 X125.717 Y123.654 E.01678
G1 X87.87 Y85.807 E1.68131
G1 X87.335 Y85.807 E.01678
G1 X125.182 Y123.654 E1.68132
G1 X124.648 Y123.654 E.01678
