; generated by PrusaSlicer 2.5.0+linux-x64-GTK3 on 2023-03-11 at 19:37:27 UTC


;
;
; 

; external perimeters extrusion width = 0.45mm
; perimeters extrusion width = 0.45mm
; infill extrusion width = 0.45mm
; solid infill extrusion width = 0.45mm
; top infill extrusion width = 0.40mm
; first layer extrusion width = 0.42mm

; external perimeters extrusion width = 0.45mm
; perimeters extrusion width = 0.45mm
; infill extrusion width = 0.45mm
; solid infill extrusion width = 0.45mm
; top infill extrusion width = 0.40mm
; first layer extrusion width = 0.42mm

M73 P0 R69
M73 Q0 S70
M201 X1000 Y1000 Z200 E5000 ; sets maximum accelerations, mm/sec^2
M203 X200 Y200 Z12 E120 ; sets maximum feedrates, mm / sec
M204 P1250 R1250 T1250 ; sets acceleration (P, T) and retract acceleration (R), mm/sec^2
M205 X8.00 Y8.00 Z0.40 E4.50 ; sets the jerk limits, mm/sec
M205 S0 T0 ; sets the minimum extruding and travel feed rate, mm/sec
M107
;TYPE:Custom
M862.3 P "MK3S" ; printer model check
M862.1 P0.4 ; nozzle diameter check
M115 U3.11.0 ; tell printer latest fw version
G90 ; use absolute coordinates
M83 ; extruder relative mode
M104 S209 ; set extruder temp
M140 S60 ; set bed temp
M190 S60 ; wait for bed temp
M109 S209 ; wait for extruder temp
G28 W ; home all without mesh bed level
G80 ; mesh bed leveling

G1 Z0.2 F720
G1 Y-3 F1000 ; go outside print area
G92 E0
G1 X60 E9 F1000 ; intro line
G1 X100 E12.5 F1000 ; intro line

G92 E0
M221 S95

; Don't change E values below. Excessive value can damage the printer.

M907 E538 ; set extruder motor current
G21 ; set units to millimeters
G90 ; use absolute coordinates
M83 ; use relative distances for extrusion
M900 K0.05 ; Filament gcode LA 1.5
M900 K30 ; Filament gcode LA 1.0
M107
;LAYER_CHANGE
;Z:0.2
;HEIGHT:0.2
;BEFORE_LAYER_CHANGE
G92 E0.0
;0.2


G1 E-.8 F2100
G1 Z.4 F720
;AFTER_LAYER_CHANGE
;0.2
G1 X48.873 Y84.129 F10800
G1 Z.2 F720
G1 E.8 F2100
M204 S800
;TYPE:Skirt/Brim
;WIDTH:0.42
G1 F1200
G1 X49.787 Y83.714 E.03147
G1 X50.5 Y83.623 E.02255
G1 X199.708 Y83.632 E4.67831
G1 X200.271 Y83.73 E.0179
G1 X200.748 Y83.91 E.016
G1 X201.569 Y84.504 E.03178
G1 X201.885 Y84.894 E.01576
G1 X202.158 Y85.405 E.01816
G1 X202.313 Y85.899 E.01623
G1 X202.377 Y86.5 E.01894
G1 X202.364 Y123.747 E1.16786
G1 X202.221 Y124.428 E.0218
G1 X201.701 Y125.349 E.03318
G1 X201.222 Y125.802 E.02067
G1 X200.282 Y126.267 E.03288
G1 X199.5 Y126.377 E.02477
G1 X50.5 Y126.377 E4.67179
G1 X49.646 Y126.246 E.0271
G1 X48.796 Y125.815 E.02988
G1 X48.376 Y125.437 E.01771
G1 X48.03 Y124.972 E.01818
G1 X47.749 Y124.335 E.02182
G1 X47.623 Y123.5 E.02649
G1 X47.629 Y86.325 E1.16561
G1 X47.838 Y85.415 E.02926
G1 X48.162 Y84.826 E.02105
G1 X48.83 Y84.171 E.02934
M204 S1000
; printing object lid-Body.stl id:0 copy 0
;WIPE_START
G1 F8640
G1 X49.787 Y83.714 E-.24481
G1 X50.5 Y83.623 E-.16609
G1 X52.012 Y83.623 E-.3491
;WIPE_END
G1 E-.04 F2100
G1 Z.6 F720
G1 X199.01 Y86.792 F10800
G1 Z.2 F720
G1 E.8 F2100
M204 S800
;TYPE:Perimeter
;WIDTH:0.419999
G1 F1200
G1 X199.009 Y123.207 E1.14175
G1 X50.991 Y123.213 E4.641
G1 X50.99 Y86.792 E1.14194
G1 X198.95 Y86.792 E4.63917
M204 S1000
G1 X199.387 Y86.415 F10800
M204 S800
;TYPE:External perimeter
M73 P1 R69
M73 Q1 S70
G1 F1200
G1 X199.386 Y123.584 E1.1654
G1 X50.614 Y123.59 E4.66465
G1 X50.613 Y86.415 E1.16558
M73 P1 R68
M73 Q1 S69
G1 X199.327 Y86.415 E4.66282
M204 S1000
G1 X199.216 Y86.777 F10800
;WIPE_START
G1 F8640
G1 X199.332 Y89.707 E-.76
;WIPE_END
G1 E-.04 F2100
G1 Z.6 F720
G1 X66.114 Y102.29 F10800
G1 Z.2 F720
G1 E.8 F2100
M204 S800
;TYPE:Perimeter
G1 F1200
G1 X66.613 Y101.876 E.02032
G1 X67.229 Y101.534 E.02212
G1 X67.899 Y101.312 E.02212
G1 X68.598 Y101.218 E.02212
G1 X69.057 Y101.227 E.01437
G1 X69.649 Y101.323 E.01882
G1 X70.316 Y101.554 E.02212
G1 X70.96 Y101.928 E.02335
G1 X71.494 Y102.393 E.0222
G1 X71.93 Y102.947 E.0221
G1 X72.255 Y103.572 E.0221
G1 X72.459 Y104.247 E.0221
G1 X72.533 Y104.909 E.02091
G1 X72.479 Y105.645 E.02314
G1 X72.294 Y106.33 E.02224
G1 X71.986 Y106.964 E.0221
G1 X71.565 Y107.53 E.0221
G1 X71.047 Y108.008 E.0221
G1 X70.414 Y108.399 E.02335
G1 X69.751 Y108.65 E.02221
G1 X69.057 Y108.773 E.02212
G1 X68.351 Y108.764 E.02212
G1 X67.66 Y108.625 E.02212
G1 X67.006 Y108.359 E.02212
G1 X66.412 Y107.977 E.02217
G1 X65.898 Y107.488 E.02222
G1 X65.484 Y106.913 E.02223
G1 X65.184 Y106.27 E.02223
G1 X65.01 Y105.583 E.02223
G1 X64.967 Y104.876 E.02223
G1 X65.056 Y104.172 E.02223
G1 X65.276 Y103.498 E.02223
G1 X65.617 Y102.876 E.02223
G1 X66.068 Y102.329 E.02226
M204 S1000
G1 X66.355 Y102.573 F10800
M204 S800
;TYPE:External perimeter
G1 F1200
G1 X66.85 Y102.169 E.02002
G1 X67.408 Y101.866 E.01992
G1 X68.013 Y101.671 E.01992
G1 X68.643 Y101.592 E.01992
G1 X68.996 Y101.6 E.01107
G1 X69.589 Y101.696 E.01882
G1 X70.187 Y101.909 E.01992
G1 X70.766 Y102.251 E.02109
G1 X71.242 Y102.673 E.01994
G1 X71.63 Y103.176 E.01991
G1 X71.919 Y103.741 E.01991
G1 X72.097 Y104.351 E.01991
G1 X72.158 Y104.946 E.01875
G1 X72.104 Y105.613 E.021
G1 X71.931 Y106.226 E.01995
G1 X71.649 Y106.794 E.01991
G1 X71.266 Y107.301 E.01991
G1 X70.795 Y107.727 E.01991
G1 X70.22 Y108.076 E.02109
G1 X69.623 Y108.296 E.01995
G1 X68.996 Y108.4 E.01992
G1 X68.361 Y108.387 E.01992
G1 X67.739 Y108.256 E.01992
G1 X67.153 Y108.012 E.01992
G1 X66.62 Y107.662 E.01997
G1 X66.161 Y107.219 E.02002
G1 X65.793 Y106.697 E.02002
G1 X65.528 Y106.116 E.02002
G1 X65.377 Y105.496 E.02002
G1 X65.344 Y104.858 E.02002
G1 X65.43 Y104.225 E.02002
G1 X65.632 Y103.62 E.02002
G1 X65.945 Y103.062 E.02002
G1 X66.316 Y102.619 E.01814
M204 S1000
G1 X66.254 Y102.186 F10800
;WIPE_START
G1 F8640
G1 X66.85 Y102.169 E-.1611
G1 X67.408 Y101.866 E-.14669
G1 X68.013 Y101.671 E-.14671
G1 X68.643 Y101.592 E-.14671
G1 X68.996 Y101.6 E-.08154
G1 X69.326 Y101.653 E-.07724
;WIPE_END
G1 E-.04 F2100
G1 Z.6 F720
G1 X100.295 Y88.252 F10800
G1 Z.2 F720
G1 E.8 F2100
M204 S800
;TYPE:Perimeter
G1 F1200
G1 X100.497 Y88.309 E.00659
G1 X100.583 Y88.461 E.00547
G1 X100.669 Y88.309 E.00547
G1 X100.96 Y88.228 E.00948
G1 X102.373 Y88.228 E.04429
G1 X102.664 Y88.309 E.00947
G1 X102.75 Y88.461 E.00547
G1 X102.836 Y88.309 E.00547
G1 X103.127 Y88.228 E.00947
G1 X104.54 Y88.228 E.04429
G1 X104.831 Y88.309 E.00947
G1 X104.917 Y88.461 E.00547
G1 X105.003 Y88.309 E.00547
G1 X105.294 Y88.228 E.00947
G1 X106.706 Y88.228 E.04429
G1 X106.997 Y88.309 E.00947
G1 X107.083 Y88.461 E.00547
G1 X107.169 Y88.309 E.00547
G1 X107.46 Y88.228 E.00947
G1 X108.873 Y88.228 E.04429
G1 X109.164 Y88.309 E.00947
G1 X109.25 Y88.461 E.00547
G1 X109.336 Y88.309 E.00547
G1 X109.627 Y88.228 E.00947
G1 X111.04 Y88.228 E.04429
G1 X111.331 Y88.309 E.00947
G1 X111.417 Y88.461 E.00547
G1 X111.503 Y88.309 E.00547
G1 X111.794 Y88.228 E.00947
G1 X113.206 Y88.228 E.04429
G1 X113.497 Y88.309 E.00947
G1 X113.583 Y88.461 E.00547
G1 X113.669 Y88.309 E.00547
G1 X113.96 Y88.228 E.00947
G1 X115.373 Y88.228 E.04429
G1 X115.664 Y88.309 E.00948
G1 X115.75 Y88.461 E.00547
G1 X115.836 Y88.309 E.00547
G1 X116.118 Y88.229 E.00919
G1 X116.657 Y88.22 E.01692
G1 X117.545 Y88.228 E.02783
G1 X117.831 Y88.309 E.0093
G1 X117.917 Y88.461 E.00547
G1 X118.002 Y88.309 E.00547
G1 X118.294 Y88.228 E.00948
G1 X119.706 Y88.228 E.04429
G1 X119.997 Y88.309 E.00947
G1 X120.083 Y88.461 E.00547
G1 X120.169 Y88.309 E.00547
G1 X120.46 Y88.228 E.00947
G1 X121.873 Y88.228 E.04429
G1 X122.164 Y88.309 E.00947
G1 X122.25 Y88.461 E.00547
G1 X122.336 Y88.309 E.00547
G1 X122.627 Y88.228 E.00947
G1 X124.04 Y88.228 E.04429
G1 X124.331 Y88.309 E.00947
G1 X124.417 Y88.461 E.00547
G1 X124.503 Y88.309 E.00547
G1 X124.794 Y88.228 E.00947
G1 X126.206 Y88.228 E.04429
G1 X126.497 Y88.309 E.00947
G1 X126.583 Y88.461 E.00547
G1 X126.669 Y88.309 E.00547
G1 X126.96 Y88.228 E.00947
G1 X128.373 Y88.228 E.04429
G1 X128.664 Y88.309 E.00947
G1 X128.75 Y88.461 E.00547
G1 X128.836 Y88.309 E.00547
G1 X129.127 Y88.228 E.00947
G1 X130.54 Y88.228 E.04429
G1 X130.831 Y88.309 E.00947
G1 X130.917 Y88.461 E.00547
G1 X131.003 Y88.309 E.00547
G1 X131.294 Y88.228 E.00947
G1 X132.706 Y88.228 E.04429
G1 X132.997 Y88.309 E.00947
G1 X133.083 Y88.461 E.00547
G1 X133.169 Y88.309 E.00547
G1 X133.46 Y88.228 E.00947
G1 X134.873 Y88.228 E.04429
G1 X135.164 Y88.309 E.00947
G1 X135.25 Y88.461 E.00547
G1 X135.336 Y88.309 E.00547
G1 X135.627 Y88.228 E.00947
G1 X137.04 Y88.228 E.04429
G1 X137.331 Y88.309 E.00947
G1 X137.417 Y88.461 E.00547
G1 X137.503 Y88.309 E.00547
G1 X137.794 Y88.228 E.00947
G1 X139.206 Y88.228 E.04429
G1 X139.497 Y88.309 E.00947
G1 X139.583 Y88.461 E.00547
G1 X139.669 Y88.309 E.00547
G1 X139.96 Y88.228 E.00947
G1 X141.373 Y88.228 E.04429
G1 X141.664 Y88.309 E.00947
G1 X141.75 Y88.461 E.00547
G1 X141.836 Y88.309 E.00547
G1 X142.127 Y88.228 E.00947
G1 X143.54 Y88.228 E.04429
G1 X143.831 Y88.309 E.00947
G1 X143.917 Y88.461 E.00547
G1 X144.003 Y88.309 E.00547
G1 X144.294 Y88.228 E.00947
G1 X145.706 Y88.228 E.04429
G1 X145.997 Y88.309 E.00947
G1 X146.083 Y88.461 E.00547
G1 X146.169 Y88.309 E.00547
G1 X146.46 Y88.228 E.00947
G1 X147.873 Y88.228 E.04429
G1 X148.164 Y88.309 E.00947
G1 X148.25 Y88.461 E.00547
G1 X148.336 Y88.309 E.00547
G1 X148.627 Y88.228 E.00947
G1 X150.04 Y88.228 E.04429
G1 X150.331 Y88.309 E.00948
G1 X150.417 Y88.461 E.00547
G1 X150.503 Y88.309 E.00547
G1 X150.788 Y88.228 E.00929
G1 X152.221 Y88.214 E.04493
G1 X152.557 Y88.325 E.01111
G1 X152.742 Y88.56 E.0094
G1 X152.786 Y88.779 E.007
G1 X152.786 Y121.221 E1.01718
G1 X152.742 Y121.44 E.007
G1 X152.557 Y121.675 E.0094
G1 X152.215 Y121.786 E.01129
G1 X150.788 Y121.772 E.04474
G1 X150.503 Y121.691 E.00929
G1 X150.417 Y121.554 E.00509
G1 X150.331 Y121.691 E.00509
G1 X150.04 Y121.772 E.00947
G1 X148.627 Y121.772 E.04429
G1 X148.336 Y121.691 E.00947
G1 X148.25 Y121.554 E.00509
G1 X148.164 Y121.691 E.00509
G1 X147.873 Y121.772 E.00947
G1 X146.46 Y121.772 E.04429
G1 X146.169 Y121.691 E.00947
G1 X146.083 Y121.554 E.00509
G1 X145.997 Y121.691 E.00509
G1 X145.706 Y121.772 E.00947
G1 X144.294 Y121.772 E.04429
G1 X144.003 Y121.691 E.00947
G1 X143.917 Y121.554 E.00509
G1 X143.831 Y121.691 E.00509
G1 X143.54 Y121.772 E.00947
G1 X142.127 Y121.772 E.04429
G1 X141.836 Y121.691 E.00947
G1 X141.75 Y121.554 E.00509
G1 X141.664 Y121.691 E.00509
G1 X141.373 Y121.772 E.00947
G1 X139.96 Y121.772 E.04429
G1 X139.669 Y121.691 E.00947
G1 X139.583 Y121.554 E.00509
G1 X139.497 Y121.691 E.00509
G1 X139.206 Y121.772 E.00947
G1 X137.794 Y121.772 E.04429
G1 X137.503 Y121.691 E.00947
G1 X137.417 Y121.554 E.00509
G1 X137.331 Y121.691 E.00509
G1 X137.04 Y121.772 E.00947
G1 X135.627 Y121.772 E.04429
G1 X135.336 Y121.691 E.00947
G1 X135.25 Y121.554 E.00509
G1 X135.164 Y121.691 E.00509
G1 X134.873 Y121.772 E.00947
G1 X133.46 Y121.772 E.04429
G1 X133.169 Y121.691 E.00947
G1 X133.083 Y121.554 E.00509
G1 X132.997 Y121.691 E.00509
G1 X132.706 Y121.772 E.00947
G1 X131.294 Y121.772 E.04429
G1 X131.003 Y121.691 E.00947
G1 X130.917 Y121.554 E.00509
G1 X130.831 Y121.691 E.00509
G1 X130.54 Y121.772 E.00947
G1 X129.127 Y121.772 E.04429
G1 X128.836 Y121.691 E.00947
G1 X128.75 Y121.554 E.00509
G1 X128.664 Y121.691 E.00509
G1 X128.373 Y121.772 E.00947
G1 X126.96 Y121.772 E.04429
G1 X126.669 Y121.691 E.00947
G1 X126.583 Y121.554 E.00509
G1 X126.497 Y121.691 E.00509
G1 X126.206 Y121.772 E.00947
G1 X124.794 Y121.772 E.04429
G1 X124.503 Y121.691 E.00947
G1 X124.417 Y121.554 E.00509
G1 X124.331 Y121.691 E.00509
G1 X124.04 Y121.772 E.00947
G1 X122.627 Y121.772 E.04429
G1 X122.336 Y121.691 E.00947
G1 X122.25 Y121.554 E.00509
G1 X122.164 Y121.691 E.00509
G1 X121.873 Y121.772 E.00947
G1 X120.46 Y121.772 E.04429
G1 X120.169 Y121.691 E.00947
G1 X120.083 Y121.554 E.00509
G1 X119.997 Y121.691 E.00509
G1 X119.706 Y121.772 E.00947
G1 X118.294 Y121.772 E.04429
G1 X118.003 Y121.691 E.00947
G1 X117.917 Y121.554 E.00509
G1 X117.831 Y121.691 E.00509
G1 X117.54 Y121.772 E.00947
G1 X116.127 Y121.772 E.04429
G1 X115.836 Y121.691 E.00947
G1 X115.75 Y121.554 E.00509
G1 X115.664 Y121.691 E.00509
G1 X115.373 Y121.772 E.00947
G1 X113.96 Y121.772 E.04429
G1 X113.669 Y121.691 E.00947
G1 X113.583 Y121.554 E.00509
G1 X113.497 Y121.691 E.00509
G1 X113.206 Y121.772 E.00947
G1 X111.794 Y121.772 E.04429
G1 X111.503 Y121.691 E.00947
G1 X111.417 Y121.554 E.00509
G1 X111.331 Y121.691 E.00509
G1 X111.04 Y121.772 E.00947
G1 X109.627 Y121.772 E.04429
G1 X109.336 Y121.691 E.00947
G1 X109.25 Y121.554 E.00509
G1 X109.164 Y121.691 E.00509
G1 X108.873 Y121.772 E.00947
G1 X107.46 Y121.772 E.04429
G1 X107.169 Y121.691 E.00947
G1 X107.083 Y121.554 E.00509
G1 X106.997 Y121.691 E.00509
G1 X106.706 Y121.772 E.00947
G1 X105.294 Y121.772 E.04429
G1 X105.003 Y121.691 E.00947
G1 X104.917 Y121.554 E.00509
G1 X104.831 Y121.691 E.00509
G1 X104.54 Y121.772 E.00947
G1 X103.127 Y121.772 E.04429
G1 X102.836 Y121.691 E.00946
G1 X102.75 Y121.554 E.00509
G1 X102.664 Y121.691 E.00509
G1 X102.373 Y121.772 E.00946
G1 X100.96 Y121.772 E.04429
G1 X100.669 Y121.691 E.00947
G1 X100.583 Y121.553 E.0051
G1 X100.497 Y121.691 E.0051
G1 X100.212 Y121.772 E.00928
G1 X98.785 Y121.786 E.04474
G1 X98.443 Y121.675 E.01129
G1 X98.258 Y121.44 E.0094
G1 X98.214 Y121.221 E.007
G1 X98.214 Y88.779 E1.01719
G1 X98.258 Y88.56 E.007
G1 X98.443 Y88.325 E.0094
G1 X98.785 Y88.214 E.01129
G1 X100.237 Y88.235 E.04553
M204 S1000
G1 X100.208 Y88.605 F10800
M204 S800
;TYPE:External perimeter
G1 F1200
G1 X100.303 Y88.632 E.0031
G1 X100.395 Y88.794 E.00582
G1 X100.395 Y121.206 E1.01626
G1 X100.303 Y121.368 E.00582
G1 X100.208 Y121.395 E.00309
G1 X98.781 Y121.409 E.04474
G1 X98.667 Y121.372 E.00376
G1 X98.591 Y121.221 E.00532
G1 X98.591 Y88.779 E1.01719
G1 X98.667 Y88.628 E.00532
G1 X98.781 Y88.591 E.00376
G1 X100.148 Y88.605 E.04286
M204 S1000
G1 X100.272 Y88.53 F10800
G1 X100.906 Y88.613
M204 S800
;WIDTH:0.42
G1 F1200
G1 X102.373 Y88.605 E.04599
G1 X102.47 Y88.632 E.00316
G1 X102.561 Y88.794 E.00582
G1 X102.561 Y121.206 E1.01627
G1 X102.47 Y121.368 E.00583
M73 P2 R68
M73 Q2 S69
G1 X102.373 Y121.395 E.00316
G1 X100.96 Y121.395 E.04429
G1 X100.863 Y121.368 E.00316
G1 X100.772 Y121.206 E.00583
G1 X100.772 Y88.794 E1.01627
G1 X100.87 Y88.661 E.00517
M204 S1000
G1 X100.905 Y88.213 F10800
;WIPE_START
G1 F8640
G1 X102.373 Y88.605 E-.34719
G1 X102.47 Y88.632 E-.02326
G1 X102.561 Y88.794 E-.04288
G1 X102.561 Y90.295 E-.34667
;WIPE_END
G1 E-.04 F2100
G1 Z.6 F720
G1 X103.073 Y88.613 F10800
G1 Z.2 F720
G1 E.8 F2100
M204 S800
G1 F1200
G1 X104.54 Y88.605 E.04599
G1 X104.637 Y88.632 E.00316
G1 X104.728 Y88.794 E.00582
G1 X104.728 Y121.206 E1.01627
G1 X104.637 Y121.368 E.00583
G1 X104.54 Y121.395 E.00316
G1 X103.127 Y121.395 E.04429
G1 X103.03 Y121.368 E.00316
G1 X102.939 Y121.206 E.00583
G1 X102.939 Y88.794 E1.01627
G1 X103.037 Y88.661 E.00518
M204 S1000
G1 X103.072 Y88.213 F10800
;WIPE_START
G1 F8640
G1 X104.54 Y88.605 E-.34718
G1 X104.637 Y88.632 E-.02326
G1 X104.728 Y88.794 E-.04288
G1 X104.728 Y90.295 E-.34668
;WIPE_END
G1 E-.04 F2100
G1 Z.6 F720
G1 X105.105 Y88.794 F10800
G1 Z.2 F720
G1 E.8 F2100
M204 S800
G1 F1200
G1 X105.24 Y88.613 E.00706
G1 X105.294 Y88.605 E.00172
G1 X106.706 Y88.605 E.04429
G1 X106.803 Y88.632 E.00316
G1 X106.895 Y88.794 E.00582
G1 X106.895 Y121.206 E1.01627
G1 X106.803 Y121.368 E.00583
G1 X106.706 Y121.395 E.00316
G1 X105.294 Y121.395 E.04429
G1 X105.197 Y121.368 E.00316
G1 X105.105 Y121.206 E.00583
G1 X105.105 Y88.854 E1.01439
M204 S1000
G1 X104.974 Y88.611 F10800
;WIPE_START
G1 F8640
G1 X105.24 Y88.613 E-.06362
G1 X105.294 Y88.605 E-.01265
G1 X106.706 Y88.605 E-.32615
G1 X106.803 Y88.632 E-.02326
G1 X106.895 Y88.794 E-.04288
G1 X106.895 Y90.056 E-.29143
;WIPE_END
G1 E-.04 F2100
G1 Z.6 F720
G1 X108.873 Y121.395 F10800
G1 Z.2 F720
G1 E.8 F2100
M204 S800
G1 F1200
G1 X107.46 Y121.395 E.04429
G1 X107.363 Y121.368 E.00316
G1 X107.272 Y121.206 E.00583
G1 X107.272 Y88.794 E1.01627
G1 X107.406 Y88.613 E.00706
G1 X107.46 Y88.605 E.00172
G1 X108.873 Y88.605 E.04429
G1 X108.97 Y88.632 E.00316
G1 X109.061 Y88.794 E.00582
G1 X109.061 Y121.206 E1.01627
G1 X108.97 Y121.368 E.00583
G1 X108.931 Y121.379 E.00127
M204 S1000
G1 X108.769 Y121.781 F10800
;WIPE_START
G1 F8640
G1 X107.46 Y121.395 E-.33952
G1 X107.363 Y121.368 E-.02324
